assets/icons/full-body.svg

<svg width="25" height="25" viewBox="0 0 25 25" fill="none" xmlns="http://www.w3.org/2000/svg">
<path d="M12.3082 9.54395C9.60464 9.54395 7.03809 11.527 7.36089 14.2639C7.38599 14.4765 7.41589 14.6996 7.45069 14.9369C7.55419 15.6431 8.15814 16.1562 8.85839 16.1562H9.65884L10.2429 19.853C10.4079 20.898 11.2926 21.6664 12.3307 21.6664C13.3689 21.6664 14.2535 20.898 14.4186 19.853L15.0026 16.1562H15.8133C16.509 16.1562 17.1112 15.65 17.2173 14.949C17.2513 14.725 17.2804 14.5135 17.3048 14.3106C17.6359 11.5542 15.0319 9.54395 12.3082 9.54395Z" fill="white"/>
<path d="M12.3303 9.54393C13.9221 9.54393 15.2126 8.22818 15.2126 6.60518C15.2126 4.98212 13.9221 3.66638 12.3303 3.66638C10.7385 3.66638 9.44809 4.98212 9.44809 6.60518C9.44809 8.22818 10.7385 9.54393 12.3303 9.54393Z" fill="white"/>
<path d="M12.308 7.83008C14.0715 7.83008 15.815 8.47467 17.0931 9.61426C18.314 10.7029 19.1406 12.2847 19.0394 14.1406L19.0072 14.5146C18.9804 14.7378 18.9487 14.9674 18.9125 15.2061C18.7125 16.5257 17.7159 17.5271 16.4779 17.7959L16.1117 20.1201C15.8188 21.9741 14.2363 23.3809 12.3304 23.3809C10.4843 23.3807 8.94123 22.061 8.58042 20.293L8.54917 20.1201L8.18101 17.793C7.03034 17.5381 6.095 16.651 5.80992 15.4717L5.75425 15.1855L5.65855 14.4648C5.42236 12.4622 6.26532 10.7527 7.55894 9.59863C8.82776 8.46679 10.5568 7.83015 12.308 7.83008ZM12.308 11.2578C11.3558 11.2579 10.4507 11.6135 9.84117 12.1572C9.25649 12.6788 8.97743 13.3284 9.06382 14.0625L9.1146 14.4424H9.65855L9.81577 14.4492C10.59 14.5198 11.2285 15.1077 11.3519 15.8887L11.9359 19.5859L11.9564 19.6689C12.0193 19.852 12.1813 19.952 12.3304 19.9521C12.5007 19.9521 12.6875 19.8217 12.725 19.5859L13.3089 15.8887L13.3412 15.7354C13.5315 14.9815 14.2116 14.4425 15.0023 14.4424H15.557C15.5733 14.3258 15.5899 14.2143 15.6029 14.1064L15.6146 13.9688C15.6546 13.2853 15.3715 12.6727 14.8109 12.1729C14.1888 11.6184 13.268 11.2578 12.308 11.2578Z" fill="white"/>
<path d="M13.4979 6.60486C13.4977 5.89719 12.9436 5.38025 12.3299 5.38025C11.7164 5.38048 11.1621 5.89735 11.162 6.60486C11.162 7.31245 11.7163 7.82924 12.3299 7.82947C12.9437 7.82947 13.4979 7.31261 13.4979 6.60486ZM16.9266 6.60486C16.9266 9.1431 14.8997 11.2582 12.3299 11.2582C9.76033 11.258 7.73422 9.14297 7.73422 6.60486C7.73439 4.06684 9.76042 1.95274 12.3299 1.95251C14.8996 1.95251 16.9264 4.0667 16.9266 6.60486Z" fill="white"/>
</svg>

<svg xmlns="http://www.w3.org/2000/svg" width="25" height="25" fill="none" viewBox="0 0 25 25"><path fill="#fff" d="M12.308 9.544c-2.703 0-5.27 1.983-4.947 4.72q.037.318.09.673c.103.706.707 1.22 1.407 1.22h.8l.585 3.696c.165 1.045 1.05 1.813 2.088 1.813s1.923-.768 2.088-1.813l.584-3.697h.81a1.42 1.42 0 0 0 1.404-1.207q.05-.335.088-.638c.33-2.757-2.273-4.767-4.997-4.767m.022 0c1.592 0 2.883-1.316 2.883-2.939s-1.29-2.939-2.883-2.939c-1.591 0-2.882 1.316-2.882 2.94 0 1.622 1.29 2.938 2.882 2.938"/><path fill="#fff" d="M12.308 7.83c1.764 0 3.507.645 4.785 1.784 1.221 1.089 2.048 2.67 1.946 4.527l-.032.374q-.04.333-.095.691a3.13 3.13 0 0 1-2.434 2.59l-.366 2.324c-.293 1.854-1.876 3.26-3.782 3.26-1.846 0-3.389-1.319-3.75-3.087l-.03-.173-.369-2.327a3.14 3.14 0 0 1-2.371-2.321l-.056-.287-.095-.72c-.237-2.003.606-3.712 1.9-4.866 1.269-1.132 2.998-1.769 4.749-1.769m0 3.428c-.952 0-1.857.356-2.467.9-.585.52-.864 1.17-.777 1.905l.05.38h.545l.157.006c.774.07 1.412.659 1.536 1.44l.584 3.697.02.083a.41.41 0 0 0 .374.283c.17 0 .357-.13.395-.366l.584-3.697.032-.154c.19-.753.87-1.292 1.661-1.293h.555q.025-.174.046-.336l.012-.137c.04-.684-.244-1.296-.804-1.796-.622-.555-1.543-.915-2.503-.915"/><path fill="#fff" d="M13.498 6.605c0-.708-.554-1.225-1.168-1.225s-1.168.517-1.168 1.225c0 .707.554 1.224 1.168 1.224s1.168-.516 1.168-1.224m3.429 0c0 2.538-2.027 4.653-4.597 4.653S7.734 9.143 7.734 6.605 9.76 1.953 12.33 1.953s4.596 2.114 4.597 4.652"/></svg>
